;FLAVOR:RepRap
;TIME:3643
;Filament used: 2.2824m
;Layer height: 0.2
;Generated with Cura_SteamEngine 2.5.0
M190 S60
M104 S205
M109 S205
G21 ;metric values
G90 ;absolute positioning
M82 ;set extruder to absolute mode
M107 ;start with the fan off
G28 X0 Y0 ;move X/Y to min endstops
G28 Z0 ;move Z to min endstops
G1 Z15.0 F9000 ;move the platform down 15mm
G92 E0 ;zero the extruded length
G1 F200 E3 ;extrude 3mm of feed stock
G92 E0 ;zero the extruded length again
G1 F9000
M117 Printing...
;LAYER_COUNT:73
;LAYER:0
M107
G0 F2000 X81.966 Y104.202 Z0.2
;TYPE:SKIRT
G1 F1200 X82.408 Y103.898 E0.01784
G1 X82.89 Y103.663 E0.03568
G1 X83.374 Y103.509 E0.05257
G1 X86.951 Y102.643 E0.17498
G1 X89.556 Y101.923 E0.26487
G1 X94.754 Y100.246 E0.44653
G1 X99.836 Y98.284 E0.62772
G1 X104.809 Y96.033 E0.80928
G1 X110.691 Y92.926 E1.03053
G1 X111.182 Y92.711 E1.04836
G1 X111.847 Y92.548 E1.07113
G1 X112.579 Y92.44 E1.09574
G1 X113.106 Y92.401 E1.11332
G1 X134.802 Y92.411 E1.83493
G1 X135.336 Y92.451 E1.85274
G1 X135.838 Y92.564 E1.86985
G1 X136.336 Y92.714 E1.88715
G1 X136.837 Y92.906 E1.905
G1 X137.303 Y93.171 E1.92283
G1 X137.725 Y93.502 E1.94066
G1 X137.992 Y93.773 E1.95332
G1 X138.375 Y94.205 E1.97252
G1 X138.7 Y94.631 E1.99034
G1 X138.958 Y95.102 E2.0082
G1 X139.143 Y95.605 E2.02603
G1 X139.271 Y96.319 E2.05016
G1 X139.379 Y97.733 E2.09732
G1 X139.389 Y98.015 E2.10671
G1 X139.335 Y123.296 E2.94756
G1 X139.294 Y123.83 E2.96537
G1 X139.174 Y124.353 E2.98322
G1 X138.98 Y124.847 E3.00087
G1 X138.856 Y125.105 E3.01039
G1 X138.588 Y125.57 E3.02824
G1 X138.254 Y125.99 E3.04609
G1 X137.953 Y126.28 E3.05999
G1 X137.57 Y126.608 E3.07676
G1 X137.137 Y126.926 E3.09463
G1 X136.663 Y127.176 E3.11246
G1 X136.157 Y127.352 E3.13027
G1 X135.855 Y127.419 E3.14056
G1 X135.154 Y127.543 E3.16424
G1 X134.518 Y127.598 E3.18547
G1 X112.475 Y127.544 E3.91863
G1 X111.94 Y127.503 E3.93647
G1 X111.418 Y127.383 E3.95429
G1 X110.762 Y127.105 E3.97799
G1 X107.661 Y125.415 E4.09545
G1 X102.73 Y122.985 E4.27829
G1 X97.697 Y120.849 E4.46014
G1 X95.18 Y119.905 E4.54955
G1 X92.584 Y119.014 E4.64083
G1 X87.352 Y117.462 E4.82235
G1 X84.664 Y116.787 E4.91453
G1 X83.424 Y116.504 E4.95683
G1 X82.911 Y116.346 E4.97468
G1 X82.428 Y116.113 E4.99252
G1 X81.985 Y115.812 E5.01033
G1 X81.591 Y115.448 E5.02817
G1 X81.256 Y115.029 E5.04601
G1 X80.986 Y114.566 E5.06384
G1 X80.789 Y114.067 E5.08168
G1 X80.667 Y113.545 E5.09951
G1 X80.625 Y112.996 E5.11783
G1 X80.621 Y107.01 E5.31692
G1 X80.661 Y106.476 E5.33473
G1 X80.779 Y105.953 E5.35257
G1 X80.974 Y105.453 E5.37042
G1 X81.241 Y104.988 E5.38825
G1 X81.574 Y104.568 E5.40608
G1 X81.966 Y104.202 E5.42391
G0 F2000 X82.355 Y104.408
G1 F1200 X82.788 Y104.147 E5.44073
G1 X83.468 Y103.898 E5.46482
G1 X87.025 Y103.037 E5.58654
G1 X89.687 Y102.301 E5.6784
G1 X94.884 Y100.625 E5.86002
G1 X100.003 Y98.648 E6.04253
G1 X104.975 Y96.398 E6.22405
G1 X110.877 Y93.28 E6.44606
G1 X111.342 Y93.079 E6.46291
G1 X111.905 Y92.943 E6.48217
G1 X112.637 Y92.835 E6.50678
G1 X113.105 Y92.801 E6.52239
G1 X134.801 Y92.811 E7.244
G1 X135.305 Y92.851 E7.26082
G1 X135.723 Y92.947 E7.27508
G1 X136.221 Y93.097 E7.29238
G1 X136.692 Y93.281 E7.3092
G1 X137.128 Y93.536 E7.326
G1 X137.692 Y94.038 E7.35111
G1 X138.075 Y94.47 E7.37031
G1 X138.38 Y94.874 E7.38715
G1 X138.617 Y95.32 E7.40395
G1 X138.781 Y95.799 E7.42079
G1 X138.872 Y96.349 E7.43933
G1 X138.98 Y97.763 E7.4865
G1 X138.989 Y98.014 E7.49485
G1 X138.935 Y123.295 E8.3357
G1 X138.894 Y123.799 E8.35252
G1 X138.774 Y124.29 E8.36933
G1 X138.619 Y124.674 E8.3831
G1 X138.495 Y124.932 E8.39262
G1 X138.241 Y125.369 E8.40944
G1 X137.921 Y125.761 E8.42627
G1 X137.692 Y125.977 E8.43674
G1 X137.309 Y126.305 E8.45351
G1 X136.901 Y126.602 E8.47029
G1 X136.45 Y126.831 E8.48712
G1 X135.785 Y127.025 E8.51016
G1 X135.084 Y127.149 E8.53383
G1 X134.519 Y127.198 E8.5527
G1 X112.476 Y127.144 E9.28585
G1 X111.972 Y127.103 E9.30267
G1 X111.481 Y126.983 E9.31948
G1 X110.953 Y126.754 E9.33862
G1 X107.83 Y125.053 E9.4569
G1 X102.905 Y122.625 E9.63953
G1 X97.833 Y120.473 E9.82278
G1 X95.302 Y119.524 E9.91269
G1 X92.736 Y118.642 E10.00294
G1 X87.444 Y117.073 E10.18652
G1 X84.754 Y116.397 E10.27877
G1 X83.513 Y116.114 E10.32111
G1 X83.03 Y115.963 E10.33794
G1 X82.578 Y115.737 E10.35475
G1 X82.166 Y115.444 E10.37156
G1 X81.806 Y115.089 E10.38838
G1 X81.506 Y114.682 E10.4052
G1 X81.274 Y114.233 E10.42201
G1 X81.116 Y113.752 E10.43884
G1 X81.036 Y113.253 E10.45565
G1 X81.025 Y112.996 E10.46421
G1 X81.021 Y107.01 E10.6633
G1 X81.061 Y106.506 E10.68012
G1 X81.179 Y106.015 E10.69692
G1 X81.374 Y105.548 E10.71375
G1 X81.639 Y105.118 E10.73055
G1 X81.969 Y104.735 E10.74736
G1 X82.355 Y104.408 E10.76419
G1 F1500 E4.26419
G0 F2000 X84.824 Y106.336
G0 X84.825 Y107.615
G0 X84.881 Y107.671
G0 X84.811 Y107.601
;TYPE:WALL-INNER
G1 F1500 E10.76419
G1 F1200 X112.529 Y107.6 E11.68609
G1 X112.647 Y106.823 E11.71223
G1 X112.728 Y105.69 E11.75001
G1 X112.728 Y105.064 E11.77083
G1 X112.767 Y104.1 E11.80292
G1 X116.73 Y104.1 E11.93473
G1 X116.73 Y107.241 E12.0392
G1 X124.38 Y107.241 E12.29364
G1 X124.38 Y100.12 E12.53049
G1 X134.39 Y100.12 E12.86342
G1 X134.39 Y97.4 E12.95389
G1 X112.407 Y97.4 E13.68505
G1 X112.38 Y97.4 E13.68594
G1 X112.38 Y97.047 E13.69769
G1 X112.384 Y97.021 E13.69852
G1 X112.406 Y96.877 E13.70337
G1 X112.461 Y96.77 E13.70737
G1 X112.549 Y96.682 E13.71151
G1 X112.656 Y96.627 E13.71551
G1 X112.828 Y96.6 E13.7213
G1 X134.742 Y96.6 E14.45016
G1 X134.913 Y96.627 E14.45592
G1 X135.02 Y96.682 E14.45992
G1 X135.108 Y96.77 E14.46406
G1 X135.163 Y96.877 E14.46806
G1 X135.189 Y97.047 E14.47378
G1 X135.189 Y122.935 E15.33482
G1 X135.161 Y123.124 E15.34117
G1 X135.11 Y123.227 E15.345
G1 X135.021 Y123.316 E15.34918
G1 X134.911 Y123.372 E15.35329
G1 X134.747 Y123.399 E15.35882
G1 X112.828 Y123.4 E16.08785
G1 X112.656 Y123.373 E16.09364
G1 X112.549 Y123.318 E16.09764
G1 X112.461 Y123.23 E16.10178
G1 X112.406 Y123.123 E16.10578
G1 X112.384 Y122.979 E16.11062
G1 X112.38 Y122.953 E16.1115
G1 X112.38 Y122.6 E16.12324
G1 X112.407 Y122.6 E16.1241
G1 X134.39 Y122.6 E16.85526
G1 X134.39 Y119.88 E16.94572
G1 X124.38 Y119.88 E17.27866
G1 X124.38 Y112.76 E17.51547
G1 X116.73 Y112.76 E17.76991
G1 X116.73 Y115.9 E17.87435
G1 X112.763 Y115.9 E18.00629
G1 X112.736 Y115.149 E18.03128
G1 X112.735 Y114.321 E18.05882
G1 X112.695 Y113.98 E18.07024
G1 X112.659 Y113.371 E18.09053
G1 X112.63 Y113.174 E18.09716
G1 X112.562 Y112.4 E18.123
G1 X84.811 Y112.4 E19.046
G1 X84.811 Y107.601 E19.20562
G0 F2000 X84.881 Y107.671
G0 X85.541 Y108.331
G0 X85.611 Y108.401
G1 F1200 X85.611 Y111.6 E19.31202
G1 X112.83 Y111.6 E20.21732
G1 X112.83 Y108.401 E20.32372
G1 X85.611 Y108.401 E21.22903
G0 F2000 X85.541 Y108.331
G0 X112.555 Y107.63
G0 X113.56 Y104.831
G0 X113.63 Y104.901
G1 F1200 X113.63 Y115.1 E21.56825
G1 X115.93 Y115.1 E21.64475
G1 X115.93 Y104.901 E21.98397
G1 X113.63 Y104.901 E22.06047
G0 F2000 X113.56 Y104.831
G0 X116.702 Y104.128
G0 X116.702 Y107.269
G0 X124.408 Y107.269
G0 X125.11 Y100.85
G0 X125.18 Y100.92
G1 F1200 X125.18 Y119.08 E22.66447
G1 X127.58 Y119.08 E22.7443
G1 X127.58 Y100.92 E23.3483
G1 X125.18 Y100.92 E23.42812
G0 F2000 X125.11 Y100.85
G0 X129.96 Y100.85
G0 X130.03 Y100.92
G1 F1200 X130.03 Y119.08 E24.03213
G1 X132.429 Y119.08 E24.11192
G1 X132.429 Y100.92 E24.71592
G1 X130.03 Y100.92 E24.79571
G0 F2000 X130.43 Y101.32
;TYPE:WALL-OUTER
G1 F1200 X130.43 Y118.68 E25.37311
G1 X132.029 Y118.68 E25.42629
G1 X132.029 Y101.32 E26.00369
G1 X130.43 Y101.32 E26.05687
G0 F2000 X130.43 Y101.52
G0 X129.93 Y101.52
G0 X127.608 Y100.892
G0 X127.18 Y100.82
G0 X127.18 Y101.32
G1 F1200 X125.58 Y101.32 E26.11009
G1 X125.58 Y118.68 E26.68748
G1 X127.18 Y118.68 E26.7407
G1 X127.18 Y101.32 E27.3181
G0 F2000 X126.98 Y101.32
G0 X126.98 Y100.82
G0 X124.45 Y100.19
G0 X123.98 Y99.72
G1 F1200 X133.99 Y99.72 E27.65103
G1 X133.99 Y97.8 E27.71489
G1 X111.98 Y97.8 E28.44695
G1 X111.98 Y97.018 E28.47296
G1 X112.021 Y96.752 E28.48191
G1 X112.134 Y96.531 E28.49016
G1 X112.31 Y96.355 E28.49844
G1 X112.531 Y96.242 E28.5067
G1 X112.798 Y96.2 E28.51569
G1 X134.772 Y96.2 E29.24654
G1 X135.038 Y96.242 E29.2555
G1 X135.259 Y96.355 E29.26376
G1 X135.435 Y96.531 E29.27204
G1 X135.548 Y96.752 E29.28029
G1 X135.589 Y97.018 E29.28924
G1 X135.589 Y122.965 E30.15224
G1 X135.548 Y123.247 E30.16172
G1 X135.438 Y123.464 E30.16981
G1 X135.26 Y123.643 E30.17821
G1 X135.038 Y123.757 E30.18651
G1 X134.78 Y123.799 E30.1952
G1 X112.798 Y123.8 E30.92633
G1 X112.531 Y123.758 E30.93532
G1 X112.31 Y123.645 E30.94357
G1 X112.134 Y123.469 E30.95185
G1 X112.021 Y123.248 E30.96011
G1 X111.98 Y122.98 E30.96912
G1 X111.98 Y122.2 E30.99507
G1 X133.99 Y122.2 E31.72712
G1 X133.99 Y120.28 E31.79098
G1 X123.98 Y120.28 E32.12392
G1 X123.98 Y113.16 E32.36073
G1 X117.13 Y113.16 E32.58856
G1 X117.13 Y116.3 E32.693
G1 X112.377 Y116.3 E32.85108
G1 X112.336 Y115.163 E32.88892
G1 X112.335 Y114.344 E32.91616
G1 X112.297 Y114.014 E32.92721
G1 X112.261 Y113.413 E32.94724
G1 X112.234 Y113.233 E32.95329
G1 X112.196 Y112.8 E32.96775
G1 X84.411 Y112.8 E33.89188
G1 X84.411 Y107.201 E34.07811
G1 X112.185 Y107.2 E35.00187
G1 X112.249 Y106.779 E35.01604
G1 X112.328 Y105.676 E35.05282
G1 X112.328 Y105.048 E35.0737
G1 X112.382 Y103.7 E35.11857
G1 X117.13 Y103.7 E35.27649
G1 X117.13 Y106.841 E35.38096
G1 X123.98 Y106.841 E35.60879
G1 X123.98 Y99.72 E35.84564
G0 F2000 X124.18 Y99.72
G0 X124.45 Y100.19
G0 X124.408 Y107.269
G0 X116.702 Y107.269
G0 X116.694 Y104.198
G0 X115.53 Y104.801
G0 X115.53 Y105.301
G1 F1200 X114.03 Y105.301 E35.89553
G1 X114.03 Y114.7 E36.20814
G1 X115.53 Y114.7 E36.25803
G1 X115.53 Y105.301 E36.57064
G0 F2000 X115.33 Y105.301
G0 X115.33 Y104.801
G0 X113.602 Y104.873
G0 X112.43 Y108.301
G0 X112.43 Y108.801
G1 F1200 X86.011 Y108.801 E37.44934
G1 X86.011 Y111.2 E37.52913
G1 X112.43 Y111.2 E38.40783
G1 X112.43 Y108.801 E38.48763
G0 F2000 X112.23 Y108.801
G0 X111.959 Y107.999
G1 F1200 X111.393 Y107.999 E38.50829
G1 X110.828 Y107.999 E38.52891
G1 X110.262 Y107.999 E38.54957
G1 X109.696 Y107.999 E38.57023
G1 X109.131 Y107.999 E38.59086
G1 X108.565 Y107.999 E38.61152
G1 X107.999 Y107.999 E38.63218
G1 X107.434 Y107.999 E38.6528
G1 X106.868 Y107.999 E38.67346
G1 X106.302 Y107.999 E38.69412
G1 X105.737 Y107.999 E38.71475
G1 X105.171 Y107.999 E38.73541
G1 X104.605 Y107.999 E38.75607
G1 X104.04 Y107.999 E38.77669
G1 X103.474 Y107.999 E38.79735
G1 X102.908 Y107.999 E38.81801
G1 X102.343 Y107.999 E38.83864
G1 X101.777 Y107.999 E38.8593
G1 X101.211 Y107.999 E38.87996
G1 X100.645 Y107.999 E38.90062
G1 X100.08 Y107.999 E38.92124
G1 X99.514 Y107.999 E38.94191
G1 X98.948 Y107.999 E38.96257
G1 X98.383 Y107.999 E38.98319
G1 X97.817 Y107.999 E39.00385
G1 X97.251 Y107.999 E39.02451
G1 X96.686 Y107.999 E39.04514
G1 X96.12 Y107.999 E39.0658
G1 X95.554 Y107.999 E39.08646
G1 X94.989 Y107.999 E39.10708
G1 X94.423 Y107.999 E39.12774
G1 X93.857 Y107.999 E39.1484
G1 X93.292 Y107.999 E39.16903
G1 X92.726 Y107.999 E39.18969
G1 X92.16 Y107.999 E39.21035
G1 X91.594 Y107.999 E39.23101
G1 X91.029 Y107.999 E39.25163
G1 X90.463 Y107.999 E39.27229
G1 X89.897 Y107.999 E39.29295
G1 X89.332 Y107.999 E39.31358
G1 X88.766 Y107.999 E39.33424
G1 X88.2 Y107.999 E39.3549
G1 X87.635 Y107.999 E39.37552
G1 X87.069 Y107.999 E39.39619
G1 X86.503 Y107.999 E39.41685
G1 X85.938 Y107.999 E39.43747
G1 X85.372 Y107.999 E39.45813
G1 X85.211 Y108.404 E39.47886
G1 X85.211 Y108.97 E39.49957
G1 X85.211 Y109.535 E39.52024
G1 X85.211 Y110.101 E39.54095
G1 X85.211 Y110.667 E39.56165
G1 X85.211 Y111.232 E39.58233
G1 X85.311 Y111.898 E39.60775
;TYPE:SKIN
G1 X85.702 Y112.289
G0 F2000 X85.977 Y111.999
G1 F1200 X86.543 Y111.999 E39.62841
G1 X87.109 Y111.999 E39.64907
G1 X87.674 Y111.999 E39.66969
G1 X88.24 Y111.999 E39.69035
G1 X88.806 Y111.999 E39.71102
G1 X89.371 Y111.999 E39.73164
G1 X89.937 Y111.999 E39.7523
G1 X90.503 Y111.999 E39.77296
G1 X91.068 Y111.999 E39.79359
G1 X91.634 Y111.999 E39.81425
G1 X92.2 Y111.999 E39.83491
G1 X92.765 Y111.999 E39.85553
G1 X93.331 Y111.999 E39.87619
G1 X93.897 Y111.999 E39.89685
G1 X94.463 Y111.999 E39.91751
G1 X95.028 Y111.999 E39.93814
G1 X95.594 Y111.999 E39.9588
G1 X96.16 Y111.999 E39.97946
G1 X96.725 Y111.999 E40.00008
G1 X97.291 Y111.999 E40.02074
G1 X97.857 Y111.999 E40.0414
G1 X98.422 Y111.999 E40.06203
G1 X98.988 Y111.999 E40.08269
G1 X99.554 Y111.999 E40.10335
G1 X100.119 Y111.999 E40.12397
G1 X100.685 Y111.999 E40.14463
G1 X101.251 Y111.999 E40.1653
G1 X101.816 Y111.999 E40.18592
G1 X102.382 Y111.999 E40.20658
G1 X102.948 Y111.999 E40.22724
G1 X103.513 Y111.999 E40.24787
G1 X104.079 Y111.999 E40.26853
G1 X104.645 Y111.999 E40.28919
G1 X105.211 Y111.999 E40.30985
G1 X105.776 Y111.999 E40.33047
G1 X106.342 Y111.999 E40.35113
G1 X106.908 Y111.999 E40.37179
G1 X107.473 Y111.999 E40.39242
G1 X108.039 Y111.999 E40.41308
G1 X108.605 Y111.999 E40.43374
G1 X109.17 Y111.999 E40.45436
G1 X109.736 Y111.999 E40.47502
G1 X110.302 Y111.999 E40.49568
G1 X110.867 Y111.999 E40.51631
G1 X111.433 Y111.999 E40.53697
G1 X111.999 Y111.999 E40.55763
G1 X112.897 Y112.331 E40.59385
G1 X113.519 Y112.953
G0 F2000 X113.18 Y112.049
G1 F1200 X113.229 Y111.532 E40.61687
G1 X113.229 Y110.966 E40.63758
G1 X113.229 Y110.4 E40.65828
G1 X113.229 Y109.834 E40.67899
G1 X113.229 Y109.269 E40.69966
G1 X113.229 Y108.703 E40.72037
G0 F2000 X112.745 Y108.219
G1 F1200 X112.305 Y107.78 E40.74104
G0 F2000 X112.707 Y107.615
G1 F1200 X113.449 Y108.358 E40.77597
G1 X113.519 Y108.428
G0 F2000 X113.449 Y107.792
G1 F1200 X112.782 Y107.125 E40.80734
G1 X112.712 Y107.055
G0 F2000 X112.84 Y106.618
G1 F1200 X113.449 Y107.227 E40.83599
G1 X113.519 Y107.297
G0 F2000 X113.449 Y106.661
G1 F1200 X112.878 Y106.09 E40.86284
G1 X112.808 Y106.02
G0 F2000 X113.178 Y105.824
G1 F1200 X113.179 Y105.26 E40.88817
G1 X113.19 Y104.705 E40.913
G0 F2000 X113.551 Y104.5
G1 F1200 X114.117 Y104.5 E40.93376
G1 X114.682 Y104.5 E40.95447
G1 X115.248 Y104.5 E40.97523
G1 X115.814 Y104.5 E40.99598
G0 F2000 X116.329 Y105.015
G1 F1200 X116.329 Y105.581 E41.01669
G1 X116.329 Y106.146 E41.03736
G1 X116.329 Y106.712 E41.05807
G0 F2000 X116.109 Y107.058
G1 F1200 X121.63 Y112.579 E41.31776
G1 X121.7 Y112.649
G0 F2000 X121.065 Y112.579
G1 F1200 X116.109 Y107.623 E41.55088
G1 X116.039 Y107.553
G0 F2000 X116.109 Y108.189
G1 F1200 X120.499 Y112.579 E41.75737
G1 X120.569 Y112.649
G0 F2000 X119.933 Y112.579
G1 F1200 X116.109 Y108.755 E41.93724
G1 X116.039 Y108.685
G0 F2000 X116.109 Y109.32
G1 F1200 X119.368 Y112.579 E42.09053
G1 X119.438 Y112.649
G0 F2000 X118.802 Y112.579
G1 F1200 X116.109 Y109.886 E42.2172
G1 X116.039 Y109.816
G0 F2000 X116.109 Y110.452
G1 F1200 X118.236 Y112.579 E42.31725
G1 X118.306 Y112.649
G0 F2000 X117.671 Y112.579
G1 F1200 X116.109 Y111.017 E42.39072
G1 X116.039 Y110.947
G0 F2000 X116.109 Y111.583
G1 F1200 X117.105 Y112.579 E42.43757
G1 X117.175 Y112.649
G0 F2000 X116.329 Y112.369
G1 F1200 X116.329 Y112.934 E42.45824
G1 X116.329 Y113.5 E42.47895
G1 X116.329 Y114.066 E42.49966
G1 X116.329 Y114.631 E42.52033
G1 X116.329 Y115.197 E42.54104
G0 F2000 X116.065 Y115.499
G1 F1200 X115.499 Y115.499 E42.5617
G1 X114.933 Y115.499 E42.58236
G1 X114.367 Y115.499 E42.60297
G1 X113.802 Y115.499 E42.62355
G0 F2000 X113.182 Y114.879
G1 F1200 X113.164 Y114.295 E42.64954
G1 X112.809 Y113.941
G0 F2000 X113.449 Y114.015
G1 F1200 X112.84 Y113.406 E42.67819
G1 X112.77 Y113.336
G0 F2000 X113.449 Y113.449
G1 F1200 X112.775 Y112.775 E42.70989
G1 X112.705 Y112.705
G0 F2000 X112.917 Y115.179
G1 F1200 X113.455 Y115.718 E42.73522
G0 F2000 X116.702 Y115.872
G0 X116.702 Y112.732
G0 X124.408 Y112.732
G0 X124.408 Y119.852
G0 X134.418 Y119.852
G0 X134.418 Y122.628
G0 X113.728 Y122.779
G0 X113.948 Y122.999
G1 F1200 X114.513 Y122.999 E42.75589
G1 X115.079 Y122.999 E42.7766
G1 X115.645 Y122.999 E42.7973
G1 X116.21 Y122.999 E42.81798
G1 X116.776 Y122.999 E42.83868
G1 X117.342 Y122.999 E42.85939
G1 X117.907 Y122.999 E42.88006
G1 X118.473 Y122.999 E42.90077
G1 X119.039 Y122.999 E42.92148
G1 X119.604 Y122.999 E42.94215
G1 X120.17 Y122.999 E42.96286
G1 X120.736 Y122.999 E42.98356
G1 X121.301 Y122.999 E43.00424
G1 X121.867 Y122.999 E43.02494
