;FLAVOR:RepRap
;TIME:5580
;Filament used: 3.06617m
;Layer height: 0.2
;Generated with Cura_SteamEngine 2.5.0
M190 S60
M104 S205
M109 S205
G21 ;metric values
G90 ;absolute positioning
M82 ;set extruder to absolute mode
M107 ;start with the fan off
G28 X0 Y0 ;move X/Y to min endstops
G28 Z0 ;move Z to min endstops
G1 Z15.0 F9000 ;move the platform down 15mm
G92 E0 ;zero the extruded length
G1 F200 E3 ;extrude 3mm of feed stock
G92 E0 ;zero the extruded length again
G1 F9000
M117 Printing...
;LAYER_COUNT:90
;LAYER:0
M107
G0 F2000 X87.031 Y55.187 Z0.2
;TYPE:SKIRT
G1 F1200 X87.365 Y54.767 E0.01785
G1 X87.757 Y54.401 E0.03569
G1 X88.199 Y54.098 E0.05351
G1 X88.682 Y53.864 E0.07136
G1 X89.194 Y53.704 E0.0892
G1 X89.724 Y53.621 E0.10704
G1 X90.009 Y53.61 E0.11653
G1 X129.99 Y53.611 E1.4463
G1 X130.525 Y53.651 E1.46415
G1 X131.048 Y53.77 E1.48199
G1 X131.547 Y53.965 E1.49981
G1 X132.012 Y54.233 E1.51766
G1 X132.432 Y54.566 E1.53548
G1 X132.798 Y54.958 E1.55332
G1 X133.101 Y55.4 E1.57114
G1 X133.336 Y55.883 E1.58901
G1 X133.496 Y56.394 E1.60682
G1 X133.579 Y56.924 E1.62466
G1 X133.59 Y57.214 E1.63431
G1 X133.57 Y80.645 E2.41363
G1 X133.567 Y80.785 E2.41829
G1 X133.382 Y85.445 E2.57341
G1 X133.46 Y90.95 E2.75652
G1 X133.585 Y93.3 E2.83479
G1 X133.59 Y93.491 E2.84115
G1 X133.59 Y116.496 E3.6063
G1 X133.55 Y117.031 E3.62414
G1 X133.431 Y117.554 E3.64198
G1 X133.236 Y118.053 E3.6598
G1 X132.879 Y118.644 E3.68276
G1 X129.119 Y123.7 E3.89233
G1 X126.013 Y128.453 E4.08118
G1 X125.687 Y128.879 E4.09902
G1 X125.301 Y129.252 E4.11687
G1 X124.864 Y129.563 E4.13471
G1 X124.386 Y129.806 E4.15255
G1 X123.877 Y129.975 E4.17039
G1 X123.349 Y130.067 E4.18821
G1 X123 Y130.084 E4.19983
G1 X95.008 Y130.09 E5.13085
G1 X94.473 Y130.05 E5.14869
G1 X93.95 Y129.931 E5.16653
G1 X93.451 Y129.736 E5.18435
G1 X92.986 Y129.469 E5.20219
G1 X92.565 Y129.136 E5.22004
G1 X92.2 Y128.743 E5.23788
G1 X91.896 Y128.301 E5.25572
G1 X91.738 Y127.997 E5.26712
G1 X89.87 Y123.945 E5.41552
G1 X86.826 Y118.174 E5.63253
G1 X86.612 Y117.682 E5.65037
G1 X86.473 Y117.164 E5.66821
G1 X86.41 Y116.494 E5.69059
G1 X86.41 Y93.501 E6.45534
G1 X86.415 Y93.306 E6.46183
G1 X86.538 Y91.035 E6.53748
G1 X86.619 Y85.531 E6.72056
G1 X86.403 Y80.012 E6.90426
G1 X86.4 Y79.87 E6.90899
G1 X86.409 Y57.209 E7.6627
G1 X86.449 Y56.674 E7.68054
G1 X86.568 Y56.151 E7.69838
G1 X86.764 Y55.652 E7.71621
G1 X87.031 Y55.187 E7.73404
G0 F2000 X87.429 Y55.317
G1 F1200 X87.759 Y54.934 E7.75086
G1 X88.146 Y54.608 E7.76769
G1 X88.579 Y54.347 E7.7845
G1 X89.048 Y54.158 E7.80132
G1 X89.54 Y54.045 E7.81811
G1 X90.009 Y54.01 E7.83376
G1 X129.99 Y54.011 E9.16353
G1 X130.494 Y54.051 E9.18034
G1 X130.985 Y54.17 E9.19715
G1 X131.452 Y54.365 E9.21398
G1 X131.882 Y54.63 E9.23078
G1 X132.265 Y54.961 E9.24762
G1 X132.591 Y55.347 E9.26442
G1 X132.852 Y55.78 E9.28124
G1 X133.042 Y56.248 E9.29804
G1 X133.155 Y56.741 E9.31486
G1 X133.19 Y57.214 E9.33063
G1 X133.17 Y80.645 E10.10995
G1 X133.167 Y80.769 E10.11408
G1 X132.982 Y85.435 E10.26939
G1 X133.06 Y90.977 E10.45374
G1 X133.185 Y93.321 E10.53181
G1 X133.19 Y93.491 E10.53747
G1 X133.19 Y116.496 E11.30262
G1 X133.15 Y117 E11.31943
G1 X133.031 Y117.491 E11.33624
G1 X132.837 Y117.958 E11.35305
G1 X132.558 Y118.406 E11.37061
G1 X128.791 Y123.472 E11.58058
G1 X125.678 Y128.235 E11.76983
G1 X125.369 Y128.635 E11.78665
G1 X125 Y128.981 E11.80347
G1 X124.582 Y129.265 E11.82028
G1 X124.124 Y129.48 E11.83711
G1 X123.638 Y129.619 E11.85392
G1 X123 Y129.684 E11.87525
G1 X95.008 Y129.69 E12.80627
G1 X94.504 Y129.65 E12.82308
G1 X94.012 Y129.531 E12.83992
G1 X93.546 Y129.337 E12.85671
G1 X93.116 Y129.071 E12.87352
G1 X92.733 Y128.741 E12.89034
G1 X92.406 Y128.355 E12.90716
G1 X92.101 Y127.83 E12.92736
G1 X90.223 Y123.755 E13.07659
G1 X87.18 Y117.987 E13.2935
G1 X86.98 Y117.523 E13.31031
G1 X86.856 Y117.033 E13.32712
G1 X86.81 Y116.494 E13.34511
G1 X86.81 Y93.501 E14.10986
G1 X86.815 Y93.328 E14.11562
G1 X86.938 Y91.063 E14.19106
G1 X87.019 Y85.536 E14.37491
G1 X86.802 Y79.996 E14.55931
G1 X86.8 Y79.87 E14.5635
G1 X86.809 Y57.209 E15.31721
G1 X86.849 Y56.705 E15.33403
G1 X86.968 Y56.213 E15.35086
G1 X87.163 Y55.747 E15.36766
G1 X87.429 Y55.317 E15.38448
G1 F1500 E8.88448
G0 F2000 X89.335 Y57.815
G0 X90.614 Y57.815
G0 X90.7 Y58.23
G0 X90.6 Y58.23
;TYPE:WALL-INNER
G1 F1500 E15.38448
G1 F1200 X90.6 Y57.801 E15.39875
G1 X91.009 Y57.801 E15.41235
G1 X91.223 Y57.801 E15.41947
G1 X91.521 Y57.801 E15.42938
G1 X91.617 Y57.801 E15.43258
G1 X91.521 Y57.841
G1 X91.223 Y58.035
G1 X91.065 Y58.179 E15.43831
G1 X90.993 Y58.245 E15.44156
G1 X90.961 Y58.274 E15.44299
G1 X90.742 Y58.553 E15.45479
G1 X90.6 Y58.816 E15.46473
G1 X90.6 Y58.553
G1 X90.6 Y58.274 E15.46707
G1 X90.6 Y58.23 E15.46847
G1 F1500 E8.96847
G0 F2000 X90.7 Y58.23
G0 X90.604 Y58.797
G0 X90.605 Y60.613
G0 X90.701 Y60.963
G0 X90.782 Y60.906
G1 F1500 E15.46847
G1 F1200 X90.974 Y61.137 E15.47846
G1 X91.01 Y61.18 E15.48033
G1 X91.28 Y61.408 E15.49208
G1 X91.586 Y61.592 E15.50396
G1 X91.921 Y61.719 E15.51587
G1 X92.269 Y61.787 E15.52767
G1 X92.625 Y61.797 E15.53951
G1 X92.978 Y61.745 E15.55138
G1 X93.316 Y61.636 E15.56319
G1 X93.632 Y61.47 E15.57506
G1 X93.916 Y61.254 E15.58693
G1 X94.157 Y60.992 E15.59877
G1 X94.352 Y60.693 E15.61064
G1 X94.492 Y60.365 E15.6225
G1 X94.575 Y60.023 E15.63421
G1 X94.602 Y59.667 E15.64608
G1 X94.564 Y59.308 E15.65809
G1 X94.468 Y58.968 E15.66984
G1 X94.317 Y58.646 E15.68167
G1 X94.112 Y58.353 E15.69356
G1 X93.946 Y58.185 E15.70142
G1 X93.861 Y58.1 E15.70542
G1 X93.57 Y57.894 E15.71728
G1 X93.379 Y57.801 E15.72434
G1 X93.57 Y57.801
G1 X93.861 Y57.801 E15.72465
G1 X93.982 Y57.801 E15.72821
G1 X126.008 Y57.801 E16.7934
G1 X126.222 Y57.801 E16.80052
G1 X126.52 Y57.801 E16.81043
G1 X126.616 Y57.801 E16.81362
G1 X126.52 Y57.841
G1 X126.222 Y58.035
G1 X126.064 Y58.179 E16.81935
G1 X125.96 Y58.274 E16.82404
G1 X125.741 Y58.553 E16.83584
G1 X125.571 Y58.868 E16.84774
G1 X125.459 Y59.207 E16.85962
G1 X125.405 Y59.557 E16.87139
G1 X125.41 Y59.915 E16.8833
G1 X125.477 Y60.264 E16.89512
G1 X125.6 Y60.597 E16.90693
G1 X125.781 Y60.906 E16.91884
G1 X126.009 Y61.18 E16.9307
G1 X126.279 Y61.408 E16.94245
G1 X126.585 Y61.592 E16.95433
G1 X126.92 Y61.719 E16.96624
G1 X127.268 Y61.787 E16.97804
G1 X127.624 Y61.797 E16.98988
G1 X127.977 Y61.745 E17.00175
G1 X128.315 Y61.636 E17.01356
G1 X128.631 Y61.47 E17.02543
G1 X128.915 Y61.254 E17.0373
G1 X129.02 Y61.14 E17.04245
G1 X129.156 Y60.992 E17.04914
G1 X129.351 Y60.693 E17.06101
G1 X129.399 Y60.581 E17.06507
G1 X129.399 Y60.693
G1 X129.399 Y60.992
G1 X129.399 Y61.193 E17.07053
G1 X129.399 Y79.601 E17.68278
G1 X122.4 Y79.601 E17.91557
G1 X122.4 Y89.601 E18.24817
G1 X95.6 Y89.601 E19.13954
G1 X95.6 Y79.601 E19.47214
G1 X90.6 Y79.601 E19.63845
G1 X90.6 Y61.207 E20.25023
G1 X90.6 Y60.906 E20.25768
G1 X90.6 Y60.594 E20.26806
G1 X90.782 Y60.906
G1 F1500 E13.76806
G0 F2000 X90.701 Y60.963
G0 X91.257 Y61.44
G0 X91.911 Y61.757
G0 X92.627 Y61.836
G0 X125.725 Y58.543
G0 X126.889 Y59.137
G0 X127.796 Y58.924
G0 X128.397 Y57.805
G0 X128.619 Y57.808
G0 X128.569 Y57.894
G1 F1500 E20.26806
G1 F1200 X128.378 Y57.801 E20.27513
G1 X128.569 Y57.801
G1 X128.86 Y57.801 E20.28455
G1 X128.981 Y57.801 E20.28858
G1 X129.399 Y57.801 E20.30248
G1 X129.399 Y58.217 E20.31632
G1 X129.399 Y58.353 E20.32084
G1 X129.399 Y58.646 E20.33058
G1 X129.399 Y58.823 E20.33647
G1 X129.316 Y58.646
G1 X129.111 Y58.353 E20.34128
G1 X129.016 Y58.257 E20.34519
G1 X128.945 Y58.185 E20.34855
G1 X128.86 Y58.1 E20.35208
G1 X128.569 Y57.894 E20.35285
G0 F2000 X128.365 Y58.239
;TYPE:WALL-OUTER
G1 F1200 X128.107 Y58.114 E20.36238
G1 X127.83 Y58.034 E20.37197
G1 X127.543 Y58.002 E20.38158
G1 X127.255 Y58.019 E20.39117
G1 X126.974 Y58.085 E20.40077
G1 X126.708 Y58.196 E20.41036
G1 X126.467 Y58.353 E20.41992
G1 X126.254 Y58.547 E20.42951
G1 X126.077 Y58.773 E20.43905
G1 X125.94 Y59.027 E20.44865
G1 X125.849 Y59.301 E20.45826
G1 X125.805 Y59.585 E20.46781
G1 X125.809 Y59.874 E20.47743
G1 X125.864 Y60.156 E20.48698
G1 X125.963 Y60.426 E20.49655
G1 X126.109 Y60.675 E20.50615
G1 X126.294 Y60.897 E20.51576
G1 X126.513 Y61.082 E20.5253
G1 X126.76 Y61.231 E20.53489
G1 X127.03 Y61.333 E20.54449
G1 X127.312 Y61.388 E20.55405
G1 X127.6 Y61.396 E20.56363
G1 X127.886 Y61.354 E20.57324
G1 X128.16 Y61.266 E20.58281
G1 X128.415 Y61.132 E20.5924
G1 X128.644 Y60.957 E20.60198
G1 X128.839 Y60.745 E20.61156
G1 X128.997 Y60.504 E20.62115
G1 X129.11 Y60.238 E20.63076
G1 X129.178 Y59.96 E20.64028
G1 X129.198 Y59.673 E20.64985
G1 X129.169 Y59.385 E20.65947
G1 X129.091 Y59.108 E20.66905
G1 X128.969 Y58.847 E20.67863
G1 X128.803 Y58.611 E20.68822
G1 X128.6 Y58.406 E20.69782
G1 X128.365 Y58.239 E20.70741
G0 F2000 X128.185 Y58.152
G0 X128.475 Y57.823
G0 X129.329 Y57.871
G0 X129.799 Y57.401
G1 F1200 X129.799 Y80.001 E21.45909
G1 X122.8 Y80.001 E21.69188
G1 X122.8 Y90.001 E22.02448
G1 X95.2 Y90.001 E22.94246
G1 X95.2 Y80.001 E23.27506
G1 X90.2 Y80.001 E23.44136
G1 X90.2 Y57.401 E24.19304
G1 X129.799 Y57.401 E25.51011
G0 F2000 X129.799 Y57.601
G1 F1500 E19.01011
G0 F2000 X129.329 Y57.871
G0 X128.397 Y57.805
G0 X127.796 Y58.924
G0 X126.804 Y59.246
G0 X125.725 Y58.543
G0 X94.698 Y59.711
G0 X94.2 Y59.673
G1 F1500 E25.51011
G1 F1200 X94.17 Y59.384 E25.51977
G1 X94.092 Y59.108 E25.52931
G1 X93.97 Y58.847 E25.53889
G1 X93.804 Y58.611 E25.54849
G1 X93.601 Y58.406 E25.55808
G1 X93.366 Y58.239 E25.56767
G1 X93.108 Y58.114 E25.57721
G1 X92.831 Y58.034 E25.5868
G1 X92.544 Y58.002 E25.5964
G1 X92.256 Y58.019 E25.606
G1 X91.975 Y58.085 E25.6156
G1 X91.709 Y58.196 E25.62519
G1 X91.468 Y58.353 E25.63475
G1 X91.255 Y58.547 E25.64433
G1 X91.078 Y58.773 E25.65388
G1 X90.941 Y59.027 E25.66348
G1 X90.85 Y59.301 E25.67308
G1 X90.806 Y59.585 E25.68264
G1 X90.81 Y59.874 E25.69225
G1 X90.865 Y60.156 E25.70181
G1 X90.964 Y60.426 E25.71138
G1 X91.11 Y60.675 E25.72098
G1 X91.295 Y60.897 E25.73059
G1 X91.514 Y61.082 E25.74012
G1 X91.761 Y61.231 E25.74972
G1 X92.031 Y61.333 E25.75932
G1 X92.313 Y61.388 E25.76887
G1 X92.601 Y61.396 E25.77846
G1 X92.887 Y61.354 E25.78807
G1 X93.161 Y61.266 E25.79764
G1 X93.416 Y61.132 E25.80722
G1 X93.645 Y60.957 E25.81681
G1 X93.84 Y60.745 E25.82639
G1 X93.998 Y60.504 E25.83597
G1 X94.111 Y60.238 E25.84559
G1 X94.179 Y59.96 E25.8551
G1 X94.2 Y59.673 E25.86468
G0 F2000 X94.18 Y59.474
G0 X94.779 Y59.706
;TYPE:SKIN
G1 F1200 X122.219 Y87.146 E27.15537
G1 X122.289 Y87.216
G0 F2000 X122.219 Y86.58
G1 F1200 X94.673 Y59.034 E28.45105
G1 X94.603 Y58.964
G0 F2000 X94.75 Y57.981
G1 F1200 X122.219 Y85.449 E29.74308
G1 X122.289 Y85.519
G0 F2000 X122.219 Y84.883
G1 F1200 X95.316 Y57.981 E31.00849
G1 X95.246 Y57.911
G0 F2000 X95.882 Y57.981
G1 F1200 X122.219 Y84.318 E32.24731
G1 X122.289 Y84.388
G0 F2000 X122.219 Y83.752
G1 F1200 X96.447 Y57.981 E33.45952
G1 X96.377 Y57.911
G0 F2000 X97.013 Y57.981
G1 F1200 X122.219 Y83.186 E34.64511
G1 X122.289 Y83.256
G0 F2000 X122.219 Y82.621
G1 F1200 X97.579 Y57.981 E35.8041
G1 X97.509 Y57.911
G0 F2000 X98.145 Y57.981
G1 F1200 X122.219 Y82.055 E36.93646
G1 X122.289 Y82.125
G0 F2000 X122.219 Y81.489
G1 F1200 X98.71 Y57.981 E38.04223
G1 X98.64 Y57.911
G0 F2000 X99.276 Y57.981
G1 F1200 X122.219 Y80.924 E39.1214
G1 X122.289 Y80.994
G0 F2000 X122.219 Y80.358
G1 F1200 X99.842 Y57.981 E40.17395
G1 X99.772 Y57.911
G0 F2000 X100.407 Y57.981
G1 F1200 X122.219 Y79.792 E41.19989
G1 X122.289 Y79.862
G0 F2000 X122.412 Y79.42
G1 F1200 X100.973 Y57.981 E42.20832
G1 X100.903 Y57.911
G0 F2000 X101.539 Y57.981
G1 F1200 X122.978 Y79.42 E43.21674
G1 X123.048 Y79.49
G0 F2000 X123.544 Y79.42
G1 F1200 X102.104 Y57.981 E44.22519
G1 X102.034 Y57.911
G0 F2000 X102.67 Y57.981
G1 F1200 X124.109 Y79.42 E45.23362
G1 X124.179 Y79.49
G0 F2000 X124.675 Y79.42
G1 F1200 X103.236 Y57.981 E46.24204
G1 X103.166 Y57.911
G0 F2000 X103.801 Y57.981
G1 F1200 X125.241 Y79.42 E47.25049
G1 X125.311 Y79.49
G0 F2000 X125.807 Y79.42
G1 F1200 X104.367 Y57.981 E48.25894
G1 X104.297 Y57.911
G0 F2000 X104.933 Y57.981
G1 F1200 X126.372 Y79.42 E49.26736
G1 X126.442 Y79.49
G0 F2000 X126.938 Y79.42
G1 F1200 X105.498 Y57.981 E50.27581
G1 X105.428 Y57.911
G0 F2000 X106.064 Y57.981
G1 F1200 X127.504 Y79.42 E51.28426
G1 X127.574 Y79.49
G0 F2000 X128.069 Y79.42
G1 F1200 X106.63 Y57.981 E52.29268
G1 X106.56 Y57.911
G0 F2000 X107.195 Y57.981
G1 F1200 X128.635 Y79.42 E53.30113
G1 X128.705 Y79.49
G0 F2000 X129.201 Y79.42
G1 F1200 X107.761 Y57.981 E54.30958
G1 X107.691 Y57.911
G0 F2000 X108.327 Y57.981
G1 F1200 X129.218 Y78.872 E55.29223
G1 X129.288 Y78.942
G0 F2000 X129.218 Y78.306
G1 F1200 X108.893 Y57.981 E56.24825
G1 X108.823 Y57.911
G0 F2000 X109.458 Y57.981
G1 F1200 X129.218 Y77.74 E57.17768
G1 X129.288 Y77.81
G0 F2000 X129.218 Y77.175
G1 F1200 X110.024 Y57.981 E58.08051
G1 X109.954 Y57.911
G0 F2000 X110.59 Y57.981
G1 F1200 X129.218 Y76.609 E58.95671
G1 X129.288 Y76.679
G0 F2000 X129.218 Y76.043
G1 F1200 X111.155 Y57.981 E59.80632
G1 X111.085 Y57.911
G0 F2000 X111.721 Y57.981
G1 F1200 X129.218 Y75.477 E60.6293
G1 X129.288 Y75.547
G0 F2000 X129.218 Y74.912
G1 F1200 X112.287 Y57.981 E61.42568
G1 X112.217 Y57.911
G0 F2000 X112.852 Y57.981
G1 F1200 X129.218 Y74.346 E62.19546
G1 X129.288 Y74.416
G0 F2000 X129.218 Y73.78
G1 F1200 X113.418 Y57.981 E62.93862
G1 X113.348 Y57.911
G0 F2000 X113.984 Y57.981
G1 F1200 X129.218 Y73.215 E63.65518
G1 X129.288 Y73.285
G0 F2000 X129.218 Y72.649
G1 F1200 X114.549 Y57.981 E64.34515
G1 X114.479 Y57.911
G0 F2000 X115.115 Y57.981
G1 F1200 X129.218 Y72.083 E65.00848
G1 X129.288 Y72.153
G0 F2000 X129.218 Y71.518
G1 F1200 X115.681 Y57.981 E65.64522
G1 X115.611 Y57.911
G0 F2000 X116.246 Y57.981
G1 F1200 X129.218 Y70.952 E66.25536
G1 X129.288 Y71.022
G0 F2000 X129.218 Y70.386
G1 F1200 X116.812 Y57.981 E66.83888
G1 X116.742 Y57.911
G0 F2000 X117.378 Y57.981
G1 F1200 X129.218 Y69.821 E67.3958
G1 X129.288 Y69.891
G0 F2000 X129.218 Y69.255
G1 F1200 X117.943 Y57.981 E67.92611
G1 X117.873 Y57.911
G0 F2000 X118.509 Y57.981
G1 F1200 X129.218 Y68.689 E68.42981
G1 X129.288 Y68.759
G0 F2000 X129.218 Y68.124
G1 F1200 X119.075 Y57.981 E68.9069
G1 X119.005 Y57.911
G0 F2000 X119.641 Y57.981
G1 F1200 X129.218 Y67.558 E69.35738
G1 X129.288 Y67.628
G0 F2000 X129.218 Y66.992
G1 F1200 X120.206 Y57.981 E69.78125
G1 X120.136 Y57.911
G0 F2000 X120.772 Y57.981
G1 F1200 X129.218 Y66.427 E70.17852
G1 X129.288 Y66.497
G0 F2000 X129.218 Y65.861
G1 F1200 X121.338 Y57.981 E70.54918
G1 X121.268 Y57.911
G0 F2000 X121.903 Y57.981
G1 F1200 X129.218 Y65.295 E70.89323
G1 X129.288 Y65.365
G0 F2000 X129.218 Y64.729
G1 F1200 X122.469 Y57.981 E71.21066
G1 X122.399 Y57.911
G0 F2000 X123.035 Y57.981
G1 F1200 X125.288 Y60.234 E71.31663
G1 X125.358 Y60.304
G0 F2000 X125.225 Y59.606
G1 F1200 X123.6 Y57.981 E71.39307
G1 X123.53 Y57.911
G0 F2000 X124.166 Y57.981
G1 F1200 X125.299 Y59.114 E71.44636
G1 X125.369 Y59.184
G0 F2000 X125.455 Y58.704
G1 F1200 X124.732 Y57.981 E71.48037
G1 X124.662 Y57.911
G0 F2000 X125.483 Y58.166
G1 F1200 X125.898 Y58.016 E71.49075
G0 F2000 X125.863 Y57.981
G0 X125.421 Y59.198
G0 X125.371 Y59.919
G0 X125.564 Y60.614
G0 X125.981 Y61.208
G0 X126.965 Y61.911
G1 F1200 X129.218 Y64.164 E71.59672
G1 X129.288 Y64.234
G0 F2000 X129.218 Y63.598
G1 F1200 X127.596 Y61.976 E71.67302
G1 X127.526 Y61.906
G0 F2000 X128.084 Y61.899
G1 F1200 X129.218 Y63.032 E71.72633
G1 X129.288 Y63.102
G0 F2000 X129.218 Y62.467
G1 F1200 X128.495 Y61.744 E71.76034
G1 X128.425 Y61.674
G0 F2000 X129.032 Y61.716
G1 F1200 X129.182 Y61.3 E71.77071
G0 F2000 X129.147 Y61.265
G0 X122.372 Y79.573
G0 X122.219 Y86.015
G1 F1200 X94.185 Y57.981 E73.08934
G1 X94.115 Y57.911
G0 F2000 X94.603 Y59.301
G0 X94.714 Y60.207
G1 F1200 X122.219 Y87.712 E74.3831
G1 X122.289 Y87.782
G0 F2000 X122.219 Y88.278
G1 F1200 X94.572 Y60.631 E75.68353
G1 X94.502 Y60.561
G0 F2000 X94.369 Y60.993
G1 F1200 X122.219 Y88.843 E76.9935
G1 X122.289 Y88.913
G0 F2000 X122.219 Y89.409
G1 F1200 X94.113 Y61.303 E78.31552
G1 X94.043 Y61.233
G0 F2000 X93.806 Y61.562
G1 F1200 X121.664 Y89.42 E79.62588
G1 X121.734 Y89.49
G0 F2000 X121.099 Y89.42
G1 F1200 X93.448 Y61.77 E80.92647
G1 X93.378 Y61.7
G0 F2000 X93.029 Y61.917
G1 F1200 X120.533 Y89.42 E82.22015
